svgs/thin/arrows-to-line.svg

<svg xmlns="http://www.w3.org/2000/svg" viewBox="0 0 448 512"><!--! Font Awesome Pro 6.0.0-alpha3 by @fontawesome - https://fontawesome.com License - https://fontawesome.com/license (Commercial License) --><path d="M229.7 322.3C228.1 320.8 226 320 224 320s-4.094 .7719-5.656 2.334l-88 88C128.8 411.9 128 413.1 128 416c0 4.57 3.736 8 8 8c2.047 0 4.094-.7813 5.656-2.344L216 347.3V504C216 508.4 219.6 512 224 512s8-3.594 8-8v-156.7l74.34 74.34C307.9 423.2 309.9 424 312 424c5.719 0 8-5.094 8-8c0-2.047-.7813-4.094-2.344-5.656L229.7 322.3zM218.3 189.7C219.9 191.2 221.9 192 224 192s4.094-.7813 5.656-2.344l88-88C319.2 100.1 320 98.05 320 96c0-4.57-3.736-8-8-8c-2.047 0-4.094 .7813-5.656 2.344L232 164.7V8C232 3.594 228.4 0 224 0S216 3.594 216 8v156.7L141.7 90.34C140.1 88.78 138 88 136 88C131.7 88 128 91.43 128 96c0 2.047 .7813 4.094 2.344 5.656L218.3 189.7zM440 248H8C3.582 248 0 251.6 0 255.1S3.582 264 8 264h432c4.418 0 8-3.591 8-8.009S444.4 248 440 248z"/></svg>

<svg xmlns="http://www.w3.org/2000/svg" viewBox="0 0 448 512"><!-- Font Awesome Pro 6.0.0-alpha2 by @fontawesome - https://fontawesome.com License - https://fontawesome.com/license (Commercial License) --><path d="M229.656 322.344C228.094 320.781 226.047 320 224 320S219.906 320.781 218.344 322.344L130.344 410.344C128.781 411.906 128 413.953 128 416C128 420.57 131.736 424 136 424C138.047 424 140.094 423.219 141.656 421.656L216 347.312V504C216 508.406 219.594 512 224 512S232 508.406 232 504V347.312L306.344 421.656C307.906 423.219 309.938 424 312 424C317.719 424 320 418.906 320 416C320 413.953 319.219 411.906 317.656 410.344L229.656 322.344ZM218.344 189.656C219.906 191.219 221.938 192 224 192S228.094 191.219 229.656 189.656L317.656 101.656C319.219 100.094 320 98.047 320 96C320 91.43 316.264 88 312 88C309.953 88 307.906 88.781 306.344 90.344L232 164.688V8C232 3.594 228.406 0 224 0S216 3.594 216 8V164.688L141.656 90.344C140.094 88.781 138.047 88 136 88C131.736 88 128 91.43 128 96C128 98.047 128.781 100.094 130.344 101.656L218.344 189.656ZM440 248H8C3.582 248 0 251.582 0 256S3.582 264 8 264H440C444.418 264 448 260.418 448 256S444.418 248 440 248Z"/></svg>
